; generated by Slic3r 1.2.9 on 2016-10-31 at 05:23:53

; external perimeters extrusion width = 0.50mm
; perimeters extrusion width = 0.72mm
; infill extrusion width = 0.72mm
; solid infill extrusion width = 0.72mm
; top infill extrusion width = 0.72mm

M107
M104 S200 ; set temperature
G28 ; home all axes
G1 Z5 F5000 ; lift nozzle

M109 S200 ; wait for temperature to be reached
G21 ; set units to millimeters
G90 ; use absolute coordinates
M82 ; use absolute distances for extrusion
G92 E0
G1 Z0.350 F7800.000
G1 E-2.00000 F2400.00000
G92 E0
G1 X81.383 Y81.383 F7800.000
G1 E2.00000 F2400.00000
G1 X81.899 Y80.887 E2.02214 F1800.000
G1 X83.102 Y80.100 E2.06662
G1 X84.435 Y79.562 E2.11110
G1 X85.848 Y79.295 E2.15559
G1 X86.497 Y79.263 E2.17570
G1 X113.503 Y79.263 E3.01130
G1 X114.152 Y79.295 E3.03142
G1 X115.565 Y79.562 E3.07590 F1800.000
G1 X116.898 Y80.100 E3.12038
G1 X117.021 Y80.165 E3.12470
G1 X118.209 Y80.976 E3.16919
G1 X119.216 Y82.002 E3.21366
G1 X119.938 Y83.082 E3.25385
G1 X120.500 Y84.404 E3.29833
G1 X120.794 Y85.812 E3.34282
G1 X120.840 Y86.600 E3.36725
G1 X120.840 Y113.400 E4.19647
G1 X120.794 Y114.188 E4.22090
G1 X120.500 Y115.596 E4.26539
G1 X119.937 Y116.918 E4.30987
G1 X119.127 Y118.106 E4.35435
G1 X118.101 Y119.113 E4.39883
G1 X116.898 Y119.900 E4.44332
G1 X115.565 Y120.438 E4.48779
G1 X114.152 Y120.705 E4.53228
G1 X113.503 Y120.737 E4.55240
G1 X86.497 Y120.737 E5.38800
G1 X85.848 Y120.705 E5.40811
G1 X84.435 Y120.438 E5.45259
G1 X83.102 Y119.900 E5.49707
G1 X81.899 Y119.113 E5.54156
G1 X80.873 Y118.106 E5.58604
G1 X80.784 Y117.998 E5.59036
G1 X79.997 Y116.795 E5.63484
G1 X79.459 Y115.462 E5.67932
G1 X79.192 Y114.049 E5.72381
G1 X79.160 Y113.400 E5.74392
G1 X79.160 Y86.600 E6.57315
G1 X79.206 Y85.812 E6.59758
G1 X79.459 Y84.538 E6.63776
G1 X79.997 Y83.205 E6.68225
G1 X80.784 Y82.002 E6.72673
G1 X81.330 Y81.436 E6.75105
G1 E4.75105 F2400.00000
G92 E0
G1 X112.615 Y112.512 F7800.000
G1 E2.00000 F2400.00000
G1 X87.385 Y112.512 E2.78065 F1800.000
G1 X87.385 Y87.488 E3.55492
G1 X112.615 Y87.495 E4.33557
G1 X112.615 Y112.437 E5.10731
G1 X113.240 Y113.137 F7800.000
G1 X86.760 Y113.137 E5.92663 F1800.000
G1 X86.760 Y86.863 E6.73958
G1 X113.240 Y86.870 E7.55890
G1 X113.240 Y113.062 E8.36930
G1 X113.758 Y113.655 F7800.000
G1 X113.641 Y113.733 E8.37364 F1800.000
G1 X113.486 Y113.762 E8.37852
G1 X86.514 Y113.762 E9.21306
G1 X86.359 Y113.733 E9.21794
G1 X86.242 Y113.655 E9.22229
G1 X86.164 Y113.538 E9.22664
G1 X86.135 Y113.383 E9.23152
G1 X86.135 Y86.617 E10.05968
G1 X86.164 Y86.462 E10.06456
G1 X86.242 Y86.345 E10.06891
G1 X86.359 Y86.267 E10.07326
G1 X86.514 Y86.238 E10.07813
G1 X113.538 Y86.246 E10.91430
G1 X113.650 Y86.272 E10.91786
G1 X113.758 Y86.345 E10.92187
G1 X113.836 Y86.462 E10.92622
G1 X113.865 Y86.617 E10.93110
G1 X113.865 Y113.383 E11.75927
G1 X113.856 Y113.470 E11.76198
G1 X113.804 Y113.596 E11.76620
G1 X113.623 Y113.614 F7800.000
G1 X112.236 Y88.179 F7800.000
G1 X111.931 Y87.874 E11.77966 F1800.000
G1 X111.040 Y87.873 E11.80747
G1 X112.236 Y89.070 E11.86027
G1 X112.236 Y89.961 E11.88808
G1 X110.149 Y87.873 E11.98021
G1 X109.257 Y87.873 E12.00802
G1 X112.236 Y90.852 E12.13949
G1 X112.236 Y91.743 E12.16729
G1 X108.366 Y87.873 E12.33809
G1 X107.474 Y87.872 E12.36591
G1 X112.236 Y92.635 E12.57604
G1 X112.236 Y93.526 E12.60384
G1 X106.583 Y87.872 E12.85331
G1 X105.691 Y87.872 E12.88112
G1 X112.236 Y94.417 E13.16992
G1 X112.236 Y95.308 E13.19773
G1 X104.800 Y87.872 E13.52586
G1 X103.909 Y87.871 E13.55368
G1 X112.236 Y96.199 E13.92115
G1 X112.236 Y97.090 E13.94895
G1 X103.017 Y87.871 E14.35575
G1 X102.126 Y87.871 E14.38357
G1 X112.236 Y97.981 E14.82970
G1 X112.236 Y98.873 E14.85751
G1 X101.234 Y87.871 E15.34298
G1 X100.343 Y87.870 E15.37079
G1 X112.236 Y99.764 E15.89559
G1 X112.236 Y100.655 E15.92340
G1 X99.452 Y87.870 E16.48754
G1 X98.560 Y87.870 E16.51535
G1 X112.236 Y101.546 E17.11882
G1 X112.236 Y102.437 E17.14663
G1 X97.669 Y87.870 E17.78943
G1 X96.777 Y87.869 E17.81725
G1 X112.236 Y103.328 E18.49939
G1 X112.236 Y104.220 E18.52719
G1 X95.886 Y87.869 E19.24866
G1 X94.995 Y87.869 E19.27648
G1 X112.236 Y105.111 E20.03728
G1 X112.236 Y106.002 E20.06509
G1 X94.103 Y87.869 E20.86523
G1 X93.212 Y87.868 E20.89304
G1 X112.236 Y106.893 E21.73252
G1 X112.236 Y107.784 E21.76032
G1 X92.320 Y87.868 E22.63913
G1 X91.429 Y87.868 E22.66694
G1 X112.236 Y108.675 E23.58509
G1 X112.236 Y109.567 E23.61289
G1 X90.538 Y87.868 E24.57037
G1 X89.646 Y87.867 E24.59818
G1 X112.236 Y110.458 E25.59499
G1 X112.236 Y111.349 E25.62280
G1 X88.755 Y87.867 E26.65894
G1 X87.863 Y87.867 E26.68675
G1 X112.130 Y112.133 E27.75753
G1 X111.239 Y112.133 E27.78534
G1 X87.764 Y88.658 E28.82119
G1 X87.764 Y89.549 E28.84900
G1 X110.348 Y112.133 E29.84553
G1 X109.456 Y112.133 E29.87334
G1 X87.764 Y90.441 E30.83055
G1 X87.764 Y91.332 E30.85836
G1 X108.565 Y112.133 E31.77624
G1 X107.674 Y112.133 E31.80405
G1 X87.764 Y92.223 E32.68262
G1 X87.764 Y93.114 E32.71042
G1 X106.783 Y112.133 E33.54966
G1 X105.892 Y112.133 E33.57747
G1 X87.764 Y94.005 E34.37739
G1 X87.764 Y94.896 E34.40520
G1 X105.001 Y112.133 E35.16579
G1 X104.109 Y112.133 E35.19360
G1 X87.764 Y95.788 E35.91487
G1 X87.764 Y96.679 E35.94268
G1 X103.218 Y112.133 E36.62463
G1 X102.327 Y112.133 E36.65243
G1 X87.764 Y97.570 E37.29506
G1 X87.764 Y98.461 E37.32287
G1 X101.436 Y112.133 E37.92617
G1 X100.545 Y112.133 E37.95398
G1 X87.764 Y99.352 E38.51796
G1 X87.764 Y100.243 E38.54577
G1 X99.654 Y112.133 E39.07043
G1 X98.763 Y112.133 E39.09823
G1 X87.764 Y101.134 E39.58357
G1 X87.764 Y102.026 E39.61138
G1 X97.871 Y112.133 E40.05739
G1 X96.980 Y112.133 E40.08520
G1 X87.764 Y102.917 E40.49189
G1 X87.764 Y103.808 E40.51969
G1 X96.089 Y112.133 E40.88706
G1 X95.198 Y112.133 E40.91487
G1 X87.764 Y104.699 E41.24291
G1 X87.764 Y105.590 E41.27072
G1 X94.307 Y112.133 E41.55944
G1 X93.416 Y112.133 E41.58724
G1 X87.764 Y106.481 E41.83664
G1 X87.764 Y107.373 E41.86445
G1 X92.524 Y112.133 E42.07453
G1 X91.633 Y112.133 E42.10233
G1 X87.764 Y108.264 E42.27309
G1 X87.764 Y109.155 E42.30089
G1 X90.742 Y112.133 E42.43232
G1 X89.851 Y112.133 E42.46013
G1 X87.764 Y110.046 E42.55224
G1 X87.764 Y110.937 E42.58004
G1 X88.960 Y112.133 E42.63283
G1 X88.069 Y112.133 E42.66063
G1 X87.764 Y111.828 E42.67409
G1 Z0.650 F7800.000
G1 X113.211 Y113.108 F7800.000
G1 X86.789 Y113.108 E43.40801 F3600.000
G1 X86.789 Y86.892 E44.13621
G1 X113.211 Y86.892 E44.87013
G1 X113.211 Y113.033 E45.59624
G1 X113.756 Y113.653 F7800.000
G1 X113.640 Y113.731 E45.60013 F3600.000
G1 X113.464 Y113.762 E45.60509
G1 X86.536 Y113.762 E46.35309
G1 X86.360 Y113.731 E46.35806
G1 X86.244 Y113.653 E46.36194
G1 X86.166 Y113.537 E46.36582
G1 X86.135 Y113.361 E46.37079
G1 X86.135 Y86.639 E47.11307
G1 X86.166 Y86.463 E47.11803
G1 X86.244 Y86.347 E47.12192
G1 X86.360 Y86.269 E47.12580
G1 X86.536 Y86.238 E47.13077
G1 X113.464 Y86.238 E47.87876
G1 X113.651 Y86.275 E47.88405
G1 X113.756 Y86.347 E47.88760
G1 X113.834 Y86.463 E47.89148
G1 X113.865 Y86.639 E47.89645
G1 X113.865 Y113.361 E48.63873
G1 X113.854 Y113.470 E48.64177
G1 X113.803 Y113.595 E48.64552
G1 X114.178 Y113.999 F7800.000
G1 X114.006 Y114.153 E48.64978 F1800.000
G1 X113.850 Y114.237 E48.65306
G1 X113.680 Y114.288 E48.65635
G1 X113.491 Y114.307 E48.65986
G1 X86.509 Y114.307 E49.15870
G1 X86.320 Y114.288 E49.16221
G1 X86.150 Y114.237 E49.16549
G1 X85.994 Y114.153 E49.16877
G1 X85.856 Y114.041 E49.17206
G1 X85.744 Y113.903 E49.17534
G1 X85.660 Y113.747 E49.17862
G1 X85.609 Y113.577 E49.18191
G1 X85.590 Y113.388 E49.18542
G1 X85.590 Y86.612 E49.68045
G1 X85.609 Y86.423 E49.68396
G1 X85.660 Y86.253 E49.68724
G1 X85.744 Y86.097 E49.69053
G1 X85.856 Y85.959 E49.69381
G1 X85.994 Y85.847 E49.69709
G1 X86.150 Y85.763 E49.70038
G1 X86.320 Y85.711 E49.70366
G1 X86.509 Y85.693 E49.70717
G1 X113.491 Y85.693 E50.20601
G1 X113.643 Y85.708 E50.20884
G1 X113.853 Y85.765 E50.21286 F1800.000
G1 X114.006 Y85.847 E50.21608
G1 X114.144 Y85.959 E50.21936
G1 X114.256 Y86.097 E50.22264
G1 X114.340 Y86.253 E50.22593
G1 X114.391 Y86.423 E50.22921
G1 X114.410 Y86.612 E50.23272
G1 X114.410 Y113.388 E50.72775
G1 X114.391 Y113.577 E50.73126
G1 X114.340 Y113.747 E50.73455
G1 X114.225 Y113.941 E50.73872
G1 X113.953 Y113.948 F7800.000
G1 E48.73872 F2400.00000
G92 E0
G1 X112.495 Y112.710 F7800.000
G1 E2.00000 F2400.00000
G1 X112.813 Y112.392 E2.01259 F1200.000
G1 X112.813 Y111.459 E2.03874
G1 X111.562 Y112.710 E2.08831
G1 X110.628 Y112.710 E2.11447
G1 X112.813 Y110.525 E2.20103
G1 X112.813 Y109.592 E2.22718
G1 X109.695 Y112.710 E2.35073
G1 X108.761 Y112.710 E2.37689
G1 X112.813 Y108.658 E2.53742
G1 X112.813 Y107.725 E2.56358
G1 X107.828 Y112.710 E2.76110
G1 X106.894 Y112.710 E2.78725
G1 X112.813 Y106.791 E3.02176
G1 X112.813 Y105.858 E3.04792
G1 X105.961 Y112.710 E3.31941
G1 X105.027 Y112.710 E3.34557
G1 X112.813 Y104.924 E3.65405
G1 X112.813 Y103.991 E3.68021
G1 X104.094 Y112.710 E4.02568
G1 X103.160 Y112.710 E4.05183
G1 X112.813 Y103.057 E4.43429
G1 X112.813 Y102.124 E4.46045
G1 X102.226 Y112.710 E4.87989
G1 X101.293 Y112.710 E4.90605
G1 X112.813 Y101.190 E5.36248
G1 X112.813 Y100.256 E5.38863
G1 X100.359 Y112.710 E5.88206
G1 X99.426 Y112.710 E5.90821
G1 X112.813 Y99.323 E6.43862
G1 X112.813 Y98.389 E6.46477
G1 X98.492 Y112.710 E7.03217
G1 X97.559 Y112.710 E7.05832
G1 X112.813 Y97.456 E7.66270
G1 X112.813 Y96.522 E7.68886
G1 X96.625 Y112.710 E8.33023
G1 X95.692 Y112.710 E8.35638
G1 X112.813 Y95.589 E9.03474
G1 X112.813 Y94.655 E9.06089
G1 X94.758 Y112.710 E9.77624
G1 X93.825 Y112.710 E9.80239
G1 X112.813 Y93.722 E10.55472
G1 X112.813 Y92.788 E10.58088
G1 X92.891 Y112.710 E11.37020
G1 X91.958 Y112.710 E11.39635
G1 X112.813 Y91.855 E12.22266
G1 X112.813 Y90.921 E12.24881
G1 X91.024 Y112.710 E13.11211
G1 X90.090 Y112.710 E13.13826
G1 X112.813 Y89.988 E14.03854
G1 X112.813 Y89.054 E14.06469
G1 X89.157 Y112.710 E15.00196
G1 X88.223 Y112.710 E15.02812
G1 X112.813 Y88.120 E16.00237
G1 X112.710 Y87.290 E16.02582
G1 X87.290 Y112.710 E17.03298
G1 X87.187 Y111.880 E17.05643
G1 X111.777 Y87.290 E18.03068
G1 X110.843 Y87.290 E18.05684
G1 X87.187 Y110.946 E18.99410
G1 X87.187 Y110.012 E19.02026
G1 X109.909 Y87.290 E19.92054
G1 X108.976 Y87.290 E19.94669
G1 X87.187 Y109.079 E20.80998
G1 X87.187 Y108.145 E20.83614
G1 X108.042 Y87.290 E21.66244
G1 X107.109 Y87.290 E21.68860
G1 X87.187 Y107.212 E22.47791
G1 X87.187 Y106.278 E22.50407
G1 X106.175 Y87.290 E23.25640
G1 X105.242 Y87.290 E23.28255
G1 X87.187 Y105.345 E23.99790
G1 X87.187 Y104.411 E24.02405
G1 X104.308 Y87.290 E24.70241
G1 X103.375 Y87.290 E24.72856
G1 X87.187 Y103.478 E25.36993
G1 X87.187 Y102.544 E25.39608
G1 X102.441 Y87.290 E26.00046
G1 X101.508 Y87.290 E26.02662
G1 X87.187 Y101.611 E26.59401
G1 X87.187 Y100.677 E26.62017
G1 X100.574 Y87.290 E27.15057
G1 X99.641 Y87.290 E27.17673
G1 X87.187 Y99.744 E27.67015
G1 X87.187 Y98.810 E27.69630
G1 X98.707 Y87.290 E28.15273
G1 X97.773 Y87.290 E28.17889
G1 X87.187 Y97.876 E28.59833
G1 X87.187 Y96.943 E28.62449
G1 X96.840 Y87.290 E29.00694
G1 X95.906 Y87.290 E29.03310
G1 X87.187 Y96.009 E29.37857
G1 X87.187 Y95.076 E29.40472
G1 X94.973 Y87.290 E29.71320
G1 X94.039 Y87.290 E29.73936
G1 X87.187 Y94.142 E30.01085
G1 X87.187 Y93.209 E30.03701
G1 X93.106 Y87.290 E30.27152
G1 X92.172 Y87.290 E30.29767
G1 X87.187 Y92.275 E30.49519
G1 X87.187 Y91.342 E30.52135
G1 X91.239 Y87.290 E30.68188
G1 X90.305 Y87.290 E30.70804
G1 X87.187 Y90.408 E30.83158
G1 X87.187 Y89.475 E30.85774
G1 X89.372 Y87.290 E30.94430
G1 X88.438 Y87.290 E30.97045
G1 X87.187 Y88.541 E31.02002
G1 X87.187 Y87.608 E31.04618
G1 X87.505 Y87.290 E31.05876
G1 Z0.950 F7800.000
G1 X113.431 Y113.328 F7800.000
G1 X86.569 Y113.328 E31.80494 F3600.000
G1 X86.569 Y86.672 E32.54541
G1 X113.431 Y86.672 E33.29159
G1 X113.431 Y113.253 E34.02997
G1 X113.912 Y113.809 F7800.000
G1 X113.725 Y113.935 E34.03624 F3600.000
G1 X113.616 Y113.968 E34.03940
G1 X113.464 Y113.983 E34.04364
G1 X86.536 Y113.983 E34.79163
G1 X86.384 Y113.968 E34.79588
G1 X86.275 Y113.935 E34.79903
G1 X86.088 Y113.809 E34.80531
G1 X85.962 Y113.622 E34.81158
G1 X85.929 Y113.513 E34.81473
G1 X85.914 Y113.361 E34.81898
G1 X85.914 Y86.639 E35.56125
G1 X85.929 Y86.487 E35.56549
G1 X85.962 Y86.378 E35.56865
G1 X86.088 Y86.191 E35.57492
G1 X86.275 Y86.065 E35.58120
G1 X86.384 Y86.032 E35.58435
G1 X86.536 Y86.017 E35.58859
G1 X113.464 Y86.017 E36.33659
G1 X113.616 Y86.032 E36.34083
G1 X113.725 Y86.065 E36.34398
G1 X113.912 Y86.191 E36.35026
G1 X114.038 Y86.378 E36.35653
G1 X114.071 Y86.487 E36.35969
G1 X114.086 Y86.639 E36.36393
G1 X114.086 Y113.361 E37.10620
G1 X114.071 Y113.513 E37.11045
G1 X114.038 Y113.622 E37.11360
G1 X113.960 Y113.751 E37.11781
G1 X114.334 Y114.155 F7800.000
G1 X114.129 Y114.337 E37.12287 F1800.000
G1 X113.934 Y114.441 E37.12695
G1 X113.723 Y114.505 E37.13103
G1 X113.491 Y114.528 E37.13535
G1 X86.509 Y114.528 E37.63418
G1 X86.277 Y114.505 E37.63850
G1 X86.066 Y114.441 E37.64258
G1 X85.871 Y114.337 E37.64666
G1 X85.700 Y114.197 E37.65075
G1 X85.560 Y114.026 E37.65483
G1 X85.456 Y113.831 E37.65891
G1 X85.392 Y113.620 E37.66300
G1 X85.369 Y113.388 E37.66731
G1 X85.369 Y86.612 E38.16234
G1 X85.392 Y86.380 E38.16665
G1 X85.456 Y86.169 E38.17073
G1 X85.560 Y85.974 E38.17482
G1 X85.700 Y85.803 E38.17890
G1 X85.871 Y85.663 E38.18298
G1 X86.066 Y85.559 E38.18707
G1 X86.277 Y85.495 E38.19115
G1 X86.509 Y85.472 E38.19546
G1 X113.491 Y85.472 E38.69430
G1 X113.655 Y85.488 E38.69735
G1 X113.934 Y85.559 E38.70268 F1800.000
G1 X114.129 Y85.663 E38.70676
G1 X114.300 Y85.803 E38.71085
G1 X114.440 Y85.974 E38.71493
G1 X114.544 Y86.169 E38.71901
G1 X114.608 Y86.380 E38.72310
G1 X114.631 Y86.612 E38.72741
G1 X114.631 Y113.388 E39.22244
G1 X114.608 Y113.620 E39.22675
G1 X114.544 Y113.831 E39.23083
G1 X114.440 Y114.026 E39.23492
G1 X114.381 Y114.097 E39.23662
G1 X114.070 Y114.082 F7800.000
G1 X112.813 Y87.608 F7800.000
G1 X112.495 Y87.290 E39.24921 F1200.000
G1 X111.562 Y87.290 E39.27536
G1 X112.813 Y88.541 E39.32494
G1 X112.813 Y89.475 E39.35109
G1 X110.628 Y87.290 E39.43765
G1 X109.695 Y87.290 E39.46380
G1 X112.813 Y90.408 E39.58735
G1 X112.813 Y91.342 E39.61351
G1 X108.761 Y87.290 E39.77404
G1 X107.828 Y87.290 E39.80019
G1 X112.813 Y92.275 E39.99772
G1 X112.813 Y93.209 E40.02387
G1 X106.894 Y87.290 E40.25838
G1 X105.961 Y87.290 E40.28453
G1 X112.813 Y94.142 E40.55603
G1 X112.813 Y95.076 E40.58219
G1 X105.027 Y87.290 E40.89067
G1 X104.094 Y87.290 E40.91682
G1 X112.813 Y96.009 E41.26229
G1 X112.813 Y96.943 E41.28845
G1 X103.160 Y87.290 E41.67091
G1 X102.226 Y87.290 E41.69706
G1 X112.813 Y97.876 E42.11651
G1 X112.813 Y98.810 E42.14266
G1 X101.293 Y87.290 E42.59909
G1 X100.359 Y87.290 E42.62525
G1 X112.813 Y99.744 E43.11866
G1 X112.813 Y100.677 E43.14482
G1 X99.426 Y87.290 E43.67523
G1 X98.492 Y87.290 E43.70138
G1 X112.813 Y101.611 E44.26877
G1 X112.813 Y102.544 E44.29493
G1 X97.559 Y87.290 E44.89931
G1 X96.625 Y87.290 E44.92546
G1 X112.813 Y103.478 E45.56683
G1 X112.813 Y104.411 E45.59298
G1 X95.692 Y87.290 E46.27134
G1 X94.758 Y87.290 E46.29749
G1 X112.813 Y105.345 E47.01284
G1 X112.813 Y106.278 E47.03899
G1 X93.825 Y87.290 E47.79132
G1 X92.891 Y87.290 E47.81747
G1 X112.813 Y107.212 E48.60679
G1 X112.813 Y108.145 E48.63294
G1 X91.958 Y87.290 E49.45925
G1 X91.024 Y87.290 E49.48540
G1 X112.813 Y109.079 E50.34869
G1 X112.813 Y110.012 E50.37485
G1 X90.091 Y87.290 E51.27512
G1 X89.157 Y87.290 E51.30128
G1 X112.813 Y110.946 E52.23854
G1 X112.813 Y111.880 E52.26470
G1 X88.223 Y87.290 E53.23895
G1 X87.290 Y87.290 E53.26510
G1 X112.710 Y112.710 E54.27226
G1 X111.777 Y112.710 E54.29842
G1 X87.187 Y88.121 E55.27267
G1 X87.187 Y89.054 E55.29882
G1 X110.843 Y112.710 E56.23608
G1 X109.909 Y112.710 E56.26224
G1 X87.187 Y89.988 E57.16252
G1 X87.187 Y90.921 E57.18867
G1 X108.976 Y112.710 E58.05196
G1 X108.042 Y112.710 E58.07811
G1 X87.187 Y91.855 E58.90441
G1 X87.187 Y92.788 E58.93057
G1 X107.109 Y112.710 E59.71988
G1 X106.175 Y112.710 E59.74604
G1 X87.187 Y93.722 E60.49837
G1 X87.187 Y94.655 E60.52452
G1 X105.242 Y112.710 E61.23986
G1 X104.308 Y112.710 E61.26601
G1 X87.187 Y95.589 E61.94437
G1 X87.187 Y96.522 E61.97052
G1 X103.375 Y112.710 E62.61189
